neru-dark-classic/22x22/actions/account-types-reconciled.svg

<svg xmlns="http://www.w3.org/2000/svg" width="22" height="22" version="1.1">
 <defs>
  <style id="current-color-scheme" type="text/css">
   .ColorScheme-Text { color:#d3dae3; } .ColorScheme-Highlight { color:#3fb7ff; }
  </style>
 </defs>
 <path style="fill:currentColor" class="ColorScheme-Text" d="M 5 3 L 5 4 L 10 4 L 10 17 L 7 17 L 7 19 L 15 19 L 15 17 L 12 17 L 12 4 L 17 4 L 17 3 L 5 3 z M 5 4.0214844 L 2.0351562 11 L 2 11 C 2 11.022027 2.005387 11.042539 2.0058594 11.064453 L 1.9902344 11.103516 L 2.0117188 11.113281 C 2.0725442 12.716488 3.381908 14 5 14 C 6.618092 14 7.9274558 12.716488 7.9882812 11.113281 L 8.0097656 11.103516 L 7.9941406 11.064453 C 7.994613 11.042539 8 11.022027 8 11 L 7.9648438 11 L 5 4.0214844 z M 17 4.0214844 L 14.035156 11 L 14 11 C 14 11.022027 14.005387 11.042539 14.005859 11.064453 L 13.990234 11.103516 L 14.011719 11.113281 C 14.072544 12.716488 15.381908 14 17 14 C 18.618092 14 19.927456 12.716488 19.988281 11.113281 L 20.009766 11.103516 L 19.994141 11.064453 C 19.994613 11.042539 20 11.022027 20 11 L 19.964844 11 L 17 4.0214844 z M 5 6.5800781 L 6.8789062 11 L 3.1210938 11 L 5 6.5800781 z M 17 6.5800781 L 18.878906 11 L 15.121094 11 L 17 6.5800781 z"/>
</svg>

<svg xmlns="http://www.w3.org/2000/svg" width="22" height="22"><defs><style id="current-color-scheme" type="text/css"></style></defs><path d="M5 3v1h5v13H7v2h8v-2h-3V4h5V3H5zm0 1.021L2.035 11H2c0 .022.005.043.006.064l-.016.04.022.01A2.994 2.994 0 0 0 5 14a2.994 2.994 0 0 0 2.988-2.887l.022-.01-.016-.039c0-.021.006-.042.006-.064h-.035L5 4.021zm12 0L14.035 11H14c0 .022.005.043.006.064l-.016.04.022.01A2.994 2.994 0 0 0 17 14a2.994 2.994 0 0 0 2.988-2.887l.022-.01-.016-.039c0-.021.006-.042.006-.064h-.035L17 4.021zM5 6.581L6.879 11H3.12L5 6.58zm12 0L18.879 11H15.12L17 6.58z" fill="currentColor" color="#d3dae3"/></svg>
